packages/ndla-icons/svg/editor/SquareAudio.svg

<svg xmlns="http://www.w3.org/2000/svg" data-license="CC-BY 4.0" data-source="Knowit" viewBox="0 0 60 46">
  <path d="M58 0H2a2 2 0 0 0-2 2v42a2 2 0 0 0 2 2h56a2 2 0 0 0 2-2V2a2 2 0 0 0-2-2Zm0 44H2V2h56Z"/>
  <path d="M34.2 33a1 1 0 0 0 1-1V15a.9.9 0 0 0-1-1 1 1 0 0 0-1 1v17a1.1 1.1 0 0 0 1 1Zm4.3 6a.9.9 0 0 0 1-1V8a1 1 0 0 0-2 0v30a.9.9 0 0 0 1 1Zm8.5-9a1 1 0 0 0 1-1V19a.9.9 0 0 0-1-1 1 1 0 0 0-1 1v10a1 1 0 0 0 1 1Zm-4.2 3a1 1 0 0 0 1-1V15a.9.9 0 0 0-1-1 1 1 0 0 0-1 1v17a1 1 0 0 0 1 1ZM30 30a1 1 0 0 0 1-1V19a.9.9 0 0 0-1-1 1 1 0 0 0-1 1v10a1 1 0 0 0 1 1Zm-12.8 3a1 1 0 0 0 1-1V15a.9.9 0 0 0-1-1 1 1 0 0 0-1 1v17a1.1 1.1 0 0 0 1 1Zm8.6 0a1 1 0 0 0 1-1V15a.9.9 0 0 0-1-1 1 1 0 0 0-1 1v17a1 1 0 0 0 1 1ZM13 30a1 1 0 0 0 1-1V19a.9.9 0 0 0-1-1 1 1 0 0 0-1 1v10a1 1 0 0 0 1 1Zm8.5 9a.9.9 0 0 0 1-1V8a1 1 0 0 0-2 0v30a.9.9 0 0 0 1 1Z"/>
</svg>

<svg xmlns="http://www.w3.org/2000/svg" viewBox="0 0 60 46" data-license="CC-BY 4.0" data-source="Knowit">
  <path d="M58,0H2A2,2,0,0,0,0,2V44a2,2,0,0,0,2,2H58a2,2,0,0,0,2-2V2A2,2,0,0,0,58,0Zm0,44H2V2H58Z"/>
  <path d="M34.2,33a1,1,0,0,0,1-1V15a.9.9,0,0,0-1-1,1,1,0,0,0-1,1V32A1.1,1.1,0,0,0,34.2,33Z"/>
  <path d="M38.5,39a.9.9,0,0,0,1-1V8a1,1,0,0,0-2,0V38A.9.9,0,0,0,38.5,39Z"/>
  <path d="M47,30a1,1,0,0,0,1-1V19a.9.9,0,0,0-1-1,1,1,0,0,0-1,1V29A1,1,0,0,0,47,30Z"/>
  <path d="M42.8,33a1,1,0,0,0,1-1V15a.9.9,0,0,0-1-1,1,1,0,0,0-1,1V32A1,1,0,0,0,42.8,33Z"/>
  <path d="M30,30a1,1,0,0,0,1-1V19a.9.9,0,0,0-1-1,1,1,0,0,0-1,1V29A1,1,0,0,0,30,30Z"/>
  <path d="M17.2,33a1,1,0,0,0,1-1V15a.9.9,0,0,0-1-1,1,1,0,0,0-1,1V32A1.1,1.1,0,0,0,17.2,33Z"/>
  <path d="M25.8,33a1,1,0,0,0,1-1V15a.9.9,0,0,0-1-1,1,1,0,0,0-1,1V32A1,1,0,0,0,25.8,33Z"/>
  <path d="M13,30a1,1,0,0,0,1-1V19a.9.9,0,0,0-1-1,1,1,0,0,0-1,1V29A1,1,0,0,0,13,30Z"/>
  <path d="M21.5,39a.9.9,0,0,0,1-1V8a1,1,0,0,0-2,0V38A.9.9,0,0,0,21.5,39Z"/>
</svg>
